src/dsmComponents/Icons/people-2-12px.svg

<?xml version="1.0" encoding="UTF-8"?>
<svg width="12px" height="12px" viewBox="0 0 12 12" version="1.1" xmlns="http://www.w3.org/2000/svg" xmlns:xlink="http://www.w3.org/1999/xlink">
    <!-- Generator: Sketch 59.1 (86144) - https://sketch.com -->
    <title>people-2-12px</title>
    <desc>Created with Sketch.</desc>
    <defs>
        <path d="M7.5,4 C8.3285,4 9,4.6715 9,5.5 L9,8.5 L7.5,8.5 L7.5,11.5 C7.5,11.776 7.276,12 7,12 L5,12 C4.724,12 4.5,11.776 4.5,11.5 L4.5,8.5 L3,8.5 L3,5.5 C3,4.6715 3.6715,4 4.5,4 L7.5,4 Z M2.513,4 C2.1955,4.419 2,4.935 2,5.5 L2,5.5 L2,9.5 L3,9.5 L3,10.5 C3,10.776 2.776,11 2.5,11 L2.5,11 L1.5,11 C1.224,11 1,10.776 1,10.5 L1,10.5 L1,8 L0,8 L0,5 C0,4.4475 0.4475,4 1,4 L1,4 Z M11,4 C11.5525,4 12,4.4475 12,5 L12,8 L11,8 L11,10.5 C11,10.776 10.776,11 10.5,11 L9.5,11 C9.224,11 9,10.776 9,10.5 L9,9.5 L10,9.5 L10,5.5 C10,4.935 9.8045,4.419 9.487,4 L11,4 Z M10,1.5 L10.1166609,1.50672467 C10.6141454,1.56446429 11,1.98696429 11,2.5 L11,2.5 L10.9932753,2.6166609 C10.9355357,3.11414541 10.5130357,3.5 10,3.5 L10,3.5 L9.8833391,3.49327533 C9.38585459,3.43553571 9,3.01303571 9,2.5 L9,2.5 L9.00672467,2.3833391 C9.06446429,1.88585459 9.48696429,1.5 10,1.5 L10,1.5 Z M2,1.5 C2.51303571,1.5 2.93553571,1.88585459 2.99327533,2.3833391 L3,2.5 C3,3.01303571 2.61414541,3.43553571 2.1166609,3.49327533 L2,3.5 C1.48696429,3.5 1.06446429,3.11414541 1.00672467,2.6166609 L1,2.5 C1,1.98696429 1.38585459,1.56446429 1.8833391,1.50672467 L2,1.5 Z M6,0 C6.77976471,0 7.42045675,0.594823529 7.49313413,1.3555286 L7.5,1.5 C7.5,2.27976471 6.90517647,2.92045675 6.1444714,2.99313413 L6,3 C5.22023529,3 4.57954325,2.40517647 4.50686587,1.6444714 L4.5,1.5 C4.5,0.720235294 5.09482353,0.0795432526 5.8555286,0.00686586607 L6,0 Z" id="path-1"></path>
    </defs>
    <g id="Final" stroke="none" stroke-width="1" fill="none" fill-rule="evenodd">
        <g id="All-Nucleo-Icons" transform="translate(-174.000000, -5276.000000)">
            <g id="Solo/Nucleo/12px/people-2" transform="translate(168.000000, 5270.000000)">
                <g id="multiple-11" transform="translate(6.000000, 6.000000)">
                    <g id="Colour/Default-Colour">
                        <mask id="mask-2" fill="white">
                            <use xlink:href="#path-1"></use>
                        </mask>
                        <g id="Mask" fill-rule="nonzero"></g>
                        <g id="colour/neutral/chia" mask="url(#mask-2)" fill="#737373">
                            <g transform="translate(-18.000000, -18.000000)" id="Colour">
                                <rect x="0" y="0" width="48" height="48"></rect>
                            </g>
                        </g>
                    </g>
                </g>
            </g>
        </g>
    </g>
</svg>

<svg width="12" height="12" xmlns="http://www.w3.org/2000/svg" xmlns:xlink="http://www.w3.org/1999/xlink"><defs><path d="M7.5 4A1.5 1.5 0 019 5.5v3H7.5v3a.5.5 0 01-.5.5H5a.5.5 0 01-.5-.5v-3H3v-3A1.5 1.5 0 014.5 4h3zM2.513 4A2.474 2.474 0 002 5.5v4h1v1a.5.5 0 01-.5.5h-1a.5.5 0 01-.5-.5V8H0V5a1 1 0 011-1zM11 4a1 1 0 011 1v3h-1v2.5a.5.5 0 01-.5.5h-1a.5.5 0 01-.5-.5v-1h1v-4c0-.565-.195-1.081-.513-1.5H11zm-1-2.5l.117.007A1 1 0 0111 2.5l-.007.117A1 1 0 0110 3.5l-.117-.007A1 1 0 019 2.5l.007-.117A1 1 0 0110 1.5zm-8 0a1 1 0 01.993.883L3 2.5a1 1 0 01-.883.993L2 3.5a1 1 0 01-.993-.883L1 2.5a1 1 0 01.883-.993L2 1.5zM6 0a1.5 1.5 0 011.493 1.356L7.5 1.5a1.5 1.5 0 01-1.356 1.493L6 3a1.5 1.5 0 01-1.493-1.356L4.5 1.5A1.5 1.5 0 015.856.007L6 0z" id="people-2-12px_svg__a"/></defs><use fill="#737373" xlink:href="#people-2-12px_svg__a" fill-rule="evenodd"/></svg>
